assets/icons/camera/photo.svg

<?xml version="1.0" encoding="UTF-8" standalone="no"?>
<svg viewBox="0 0 24 24" height="24" width="24" version="1.1" id="svg4" sodipodi:docname="photo.svg" inkscape:version="1.1 (ce6663b3b7, 2021-05-25)"
   xmlns:inkscape="http://www.inkscape.org/namespaces/inkscape"
   xmlns:sodipodi="http://sodipodi.sourceforge.net/DTD/sodipodi-0.dtd"
   xmlns="http://www.w3.org/2000/svg"
   xmlns:svg="http://www.w3.org/2000/svg">
   <defs id="defs8" />
   <sodipodi:namedview id="namedview6" pagecolor="#ffffff" bordercolor="#666666" borderopacity="1.0" inkscape:pageshadow="2" inkscape:pageopacity="0.0" inkscape:pagecheckerboard="0" showgrid="true" inkscape:zoom="16" inkscape:cx="1.90625" inkscape:cy="1.34375" inkscape:window-width="1920" inkscape:window-height="1016" inkscape:window-x="0" inkscape:window-y="27" inkscape:window-maximized="1" inkscape:current-layer="svg4" inkscape:snap-bbox="true" inkscape:bbox-paths="true" inkscape:bbox-nodes="true" inkscape:snap-bbox-edge-midpoints="true" inkscape:snap-bbox-midpoints="true" inkscape:object-paths="true" inkscape:snap-intersection-paths="true" inkscape:snap-smooth-nodes="true" inkscape:snap-midpoints="true">
      <inkscape:grid type="xygrid" id="grid845" />
      <inkscape:grid type="xygrid" id="grid1396" dotted="true" spacingx="0.5" spacingy="0.5" empspacing="10" />
   </sodipodi:namedview>
   <path id="rect1420" style="fill:#808080;fill-rule:evenodd;stroke-width:0.5;stroke-linecap:square;fill-opacity:1" d="M 6 4 L 6 5 L 6.1289062 5 C 4.8824002 5.0091174 3.9889142 5.0719491 3.2773438 5.4277344 C 2.8029634 5.6649245 2.4414421 6.0749032 2.25 6.5917969 C 2.0585579 7.1086905 2 7.722223 2 8.5 L 2 15.5 C 2 16.277777 2.058558 16.891309 2.25 17.408203 C 2.4414421 17.925097 2.8029634 18.335075 3.2773438 18.572266 C 4.2261043 19.046646 5.500002 19 7.5 19 L 16.5 19 C 18.499998 19 19.773896 19.04665 20.722656 18.572266 C 21.197037 18.335075 21.558558 17.925097 21.75 17.408203 C 21.941442 16.891309 22 16.277777 22 15.5 L 22 8.5 C 22 7.722223 21.94144 7.1086905 21.75 6.5917969 C 21.558558 6.0749032 21.197037 5.6649245 20.722656 5.4277344 C 19.773896 4.9533541 18.499998 5 16.5 5 L 8 5 L 8 4 L 6 4 z M 7.5 6 L 16.5 6 C 18.499998 6 19.726106 6.046647 20.277344 6.3222656 C 20.552963 6.4600751 20.691442 6.6125976 20.8125 6.9394531 C 20.933558 7.2663086 21 7.7777785 21 8.5 L 21 15.5 C 21 16.222221 20.93356 16.733691 20.8125 17.060547 C 20.691442 17.387402 20.552963 17.539925 20.277344 17.677734 C 19.726106 17.953353 18.499998 18 16.5 18 L 7.5 18 C 5.500002 18 4.273894 17.95335 3.7226562 17.677734 C 3.4470373 17.539925 3.3085576 17.387402 3.1875 17.060547 C 3.0664424 16.733691 3 16.222221 3 15.5 L 3 8.5 C 3 7.7777785 3.066442 7.2663086 3.1875 6.9394531 C 3.3085576 6.6125976 3.4470372 6.4600751 3.7226562 6.3222656 C 4.273894 6.0466467 5.500002 6 7.5 6 z M 12 7 A 5 5 0 0 0 7 12 A 5 5 0 0 0 12 17 A 5 5 0 0 0 17 12 A 5 5 0 0 0 12 7 z M 18.5 7 A 0.5 0.5 0 0 0 18 7.5 A 0.5 0.5 0 0 0 18.5 8 A 0.5 0.5 0 0 0 19 7.5 A 0.5 0.5 0 0 0 18.5 7 z M 12 8 A 4 4 0 0 1 16 12 A 4 4 0 0 1 12 16 A 4 4 0 0 1 8 12 A 4 4 0 0 1 12 8 z M 12.048828 9.0019531 A 1 1 0 0 1 13 10 A 1 1 0 0 1 12 11 A 1 1 0 0 1 11 10 A 1 1 0 0 1 11.853516 9.0097656 A 3 3 0 0 0 9 12 A 3 3 0 0 0 12 15 A 3 3 0 0 0 15 12 A 3 3 0 0 0 12.048828 9.0019531 z " />
</svg>

<svg height="24" width="24" xmlns="http://www.w3.org/2000/svg"><path style="fill:gray;stroke-width:.5;stroke-linecap:square;fill-opacity:1" d="M6 4v1h.129c-1.247.01-2.14.072-2.852.428A2.097 2.097 0 0 0 2.25 6.592C2.059 7.109 2 7.722 2 8.5v7c0 .778.059 1.391.25 1.908.191.517.553.927 1.027 1.164.95.475 2.223.428 4.223.428h9c2 0 3.274.047 4.223-.428a2.097 2.097 0 0 0 1.027-1.164c.191-.517.25-1.13.25-1.908v-7c0-.778-.059-1.391-.25-1.908a2.097 2.097 0 0 0-1.027-1.164C19.773 4.953 18.5 5 16.5 5H8V4H6zm1.5 2h9c2 0 3.226.047 3.777.322.276.138.414.29.535.617.122.327.188.839.188 1.561v7c0 .722-.066 1.234-.188 1.56-.12.327-.259.48-.535.618-.55.275-1.777.322-3.777.322h-9c-2 0-3.226-.047-3.777-.322-.276-.138-.414-.29-.535-.617C3.066 16.734 3 16.222 3 15.5v-7c0-.722.066-1.234.188-1.56.12-.327.259-.48.535-.618C4.273 6.047 5.5 6 7.5 6zM12 7a5 5 0 0 0-5 5 5 5 0 0 0 5 5 5 5 0 0 0 5-5 5 5 0 0 0-5-5zm6.5 0a.5.5 0 0 0-.5.5.5.5 0 0 0 .5.5.5.5 0 0 0 .5-.5.5.5 0 0 0-.5-.5zM12 8a4 4 0 0 1 4 4 4 4 0 0 1-4 4 4 4 0 0 1-4-4 4 4 0 0 1 4-4zm.049 1.002A1 1 0 0 1 13 10a1 1 0 0 1-1 1 1 1 0 0 1-1-1 1 1 0 0 1 .854-.99A3 3 0 0 0 9 12a3 3 0 0 0 3 3 3 3 0 0 0 3-3 3 3 0 0 0-2.951-2.998z"/></svg>
